X:1
T:James Gibb editions
T:Zu dir von Herzensgrunde - Lasso
T:#
%%score [ 1 2 3 4 ]
L:1/8
Q:1/4=84
M:4/4
K:F
V:1 treble nm="Soprano" snm="S"
V:2 treble nm="Alto" snm="A"
V:3 treble-8 nm="Tenor" snm="T"
V:4 bass nm="Bass" snm="B"
V:1
"^Zu dir von Herzensgrunde""^Orlando di Lasso\n(1532-94)" A4 c2 c2 | d2 c2 c4 | A2 f4 d2- | %3
w: Zu dir von|Her- zens- grun-|de ruf ich|
[M:4/4] d2 _e4 (c2- | cB B4) A2 | B2 d2 ^c2 d2 | e2 f2 (e2 d2- | dc cB/c/) d2 B2 | d4 d2 (f2- | %9
w: * aus tie\-|* * * fer|Not. Wann ist dein|Zeit und Stun\- *|* * * * * de, wann|hilfst du mir|
 fe d4) ^c2 | d2 d2 (f3 e/d/ | c2) d2 A2 B2 | (A2 G4 ^F2) | G2 G2 G2 G2 | (A2 G2- GF F2- | %15
w: * * * mei|Gott? Ach öff\- * *|* ne dei- ne|Oh\- * *|ren, ver- nimm, Herr,|wie * * * *|
 F2) E2 F4 | F4 G2 A2 | B2 B4 A2 | B2 d4 c2 | B2 (A2- AG/A/ BG | %20
w: * ich schrei,|wollst gnä- dig-|lich an- hö-|ren, was mein|An- lie\- * * * * *|
[Q:1/4=82] A2)[Q:1/4=79] (G2-[Q:1/4=77] G[Q:1/4=75]^F/[Q:1/4=75]E/[Q:1/4=73] F2) |[Q:1/4=72] G8 |] %22
w: * gen * * * *|sei.|
V:2
 F4 E2 F2 | F2 F4 E2 | F2 F2 (DEFD |[M:4/4] G2 G4 (F2 | D3 E) F4 | F4 A4 | A2 A2 A2 A2 | %7
w: Zu dir von|Her- zens- grun-|de ruf ich * * *|* aus tie\-|* * fer|Not. Wann|ist dein Zeit und|
 B2 AG F2) G2 | B4 A2 A2 | A4 A4 | F4 z2 F2 | A4 z2 F2 | F2 D2 (C4 | D4) E2 E2 | F2 E2 D2 C2 | %15
w: Stun\- * * * de,|wann hilfst du|mir mei|Gott? Ach|öff- ne|dei- ne Oh\-|* ren, ver-|nimm, Herr, wie ich|
 C4 C4 | (D3 C D2) F2 | F2 G2 F4 | (D3 E FG A2) | F6 D2 | F2 _E2 D4 | =B,8 |] %22
w: schrei, wollst|gnä\- * * dig-|lich an- hö-|ren, * * * *|was mein|An- lie- gen|sei.|
V:3
 d4 G2 A2 | B2 A2 G4 | F4 z4 |[M:4/4][K:treble-8] B4 G2 A2 | B4 c4 | d4 z2 d2 | ^c2 d2 e2 f2 | %7
w: Zu dir von|Her- zens- grun-|de|ruf ich aus|tie- fer|Not. Wann|ist dein Zeit und|
 e4 d4 | g4 f2 d2 | f4 e4 | d4 z2 d2 | f4 z2 d2 | c2 B2 A4 | G4 z4 | c4 B2 A2 | G2 G2 F4 | %16
w: Stun- de,|wann hilfst du|mir mei|Gott? mei|Gott öff-|ne dein Oh-|ren,|ver- nimm, Herr,|wie ich schrei,|
 z2 B2 B2 c2 | d2 _e2 c4 | B4 z4 | d4 c2 B2 | c4 A4 | G8 |] %22
w: wollst gnä- dig-|lich an- hö-|ren,|was mein An-|lie- gen|sei.|
V:4
 D,4 C,2 F,2 | B,,2 F,2 C,4 | D,4 B,4 |[M:4/4] G,2 (_E,4 F,2) | G,4 F,4 | B,,4 z4 | %6
w: Zu dir von|Her- zens- grun-|de ruf|ich aus *|tie- fer|Not.|
 z2 D,2 ^C,2 D,2 | G,2 A,2 B,2 G,2 | z2 G,2 D3 D | D2 D2 A,4 | z2 B,2 D4 | z2 D,2 D,2 B,,2 | %12
w: Wann ist dein|Zeit und Stun- de,|wann hilfst du|mir mei Gott?|mei Gott|öff- ne dein|
 (F,2 G,2 A,B, C2- | C=B,/A,/ B,2) C2 C,2 | F,2 C,2 D,2 F,2 | C,4 z2 C2 | (B,3 A, G,2) F,2 | %17
w: Oh\- * * * *|* * * * ren, ver-|nimm, Herr, wie ich|schrei, wollst|gnä\- * * dig-|
 B,2 _E,2 F,4 | (B,,3 C, D,E, F,2) | (B,,C,D,E, F,2) G,2 | F,2 C,2 D,4 | G,8 |] %22
w: lich an- hö-|ren, * * * *|was * * * * mein|An- lie- gen|sei.|

